src/categories-icons-sprite/categories/svg-cat-anim-toys.svg

<svg width="28" height="28" viewBox="0 0 28 28" fill="none" xmlns="http://www.w3.org/2000/svg">
<path class="p-DCF4FF" d="M14 28C10.2605 28 6.74477 26.5437 4.10047 23.8995C1.45627 21.2552 0 17.7395 0 14C0 10.2605 1.45627 6.74477 4.10047 4.10047C6.74477 1.45627 10.2605 0 14 0C17.7395 0 21.2552 1.45627 23.8995 4.10047C26.5437 6.74477 28 10.2605 28 14C28 17.7395 26.5437 21.2552 23.8995 23.8995C21.2552 26.5437 17.7395 28 14 28Z" fill="#B9DFFC"/>
<path class="p-CCEFFF" d="M23.8995 4.10047C21.2552 1.45627 17.7395 0 14 0V28C17.7395 28 21.2552 26.5437 23.8995 23.8995C26.5437 21.2552 28 17.7395 28 14C28 10.2605 26.5437 6.74477 23.8995 4.10047Z" fill="#A1D1FD"/>
<path class="p-87E694" d="M4.37347 24.165C6.82959 21.3452 8.17097 17.7759 8.17097 14.0007C8.17097 10.2249 6.82948 6.65549 4.37298 3.83569C4.28121 3.9227 4.19027 4.01086 4.10047 4.1006C1.45627 6.7449 0 10.2606 0 14.0001C0 17.7397 1.45627 21.2554 4.10047 23.8997C4.19043 23.9896 4.28154 24.0778 4.37347 24.165Z" fill="#58ADE5"/>
<path class="p-66CC70" d="M23.8995 4.1005C23.8918 4.09273 23.8838 4.08535 23.8761 4.07764C21.5541 6.85746 20.2891 10.3289 20.2891 13.9947C20.2891 17.6634 21.5558 21.1369 23.881 23.9176C23.8871 23.9115 23.8934 23.9057 23.8995 23.8996C26.5437 21.2553 28 17.7396 28 14C28 10.2605 26.5437 6.7448 23.8995 4.1005Z" fill="#4D98CB"/>
<path class="p-87E694" d="M18.6484 13.9946C18.6484 9.92359 20.0594 6.06933 22.6481 2.98873C20.1914 1.05142 17.1766 0 13.9999 0C10.9409 0 8.03195 0.975024 5.62695 2.77714C8.33382 5.89269 9.81159 9.83298 9.81159 14.0006C9.81159 18.1676 8.33393 22.1079 5.6275 25.2233C8.03238 27.0251 10.9412 28 13.9999 28C17.1789 28 20.1958 26.947 22.6535 25.007C20.0613 21.9254 18.6484 18.0689 18.6484 13.9946Z" fill="#58ADE5"/>
<path class="p-66CC70" d="M18.6484 13.9946C18.6484 9.92359 20.0594 6.06933 22.6481 2.98873C20.1915 1.05142 17.1767 0 14 0V28C17.179 28 20.1959 26.947 22.6535 25.007C20.0613 21.9254 18.6484 18.0689 18.6484 13.9946Z" fill="#4D98CB"/>
</svg>

<svg width="28" height="28" fill="none" xmlns="http://www.w3.org/2000/svg"><path class="p-DCF4FF" d="M14 28c-3.74 0-7.255-1.456-9.9-4.1A13.909 13.909 0 010 14c0-3.74 1.456-7.255 4.1-9.9A13.909 13.909 0 0114 0c3.74 0 7.255 1.456 9.9 4.1A13.909 13.909 0 0128 14c0 3.74-1.456 7.255-4.1 9.9A13.909 13.909 0 0114 28z" fill="#B9DFFC"/><path class="p-CCEFFF" d="M23.9 4.1A13.909 13.909 0 0014 0v28c3.74 0 7.255-1.456 9.9-4.1A13.909 13.909 0 0028 14c0-3.74-1.456-7.255-4.1-9.9z" fill="#A1D1FD"/><path class="p-87E694" d="M4.373 24.165a15.387 15.387 0 003.798-10.164c0-3.776-1.342-7.346-3.798-10.165A13.909 13.909 0 000 14a13.909 13.909 0 004.373 10.165z" fill="#58ADE5"/><path class="p-66CC70" d="M23.9 4.1l-.024-.022a15.384 15.384 0 00-3.587 9.917c0 3.668 1.267 7.142 3.592 9.923l.018-.018A13.909 13.909 0 0028 14c0-3.74-1.456-7.255-4.1-9.9z" fill="#4D98CB"/><path class="p-87E694" d="M18.648 13.995c0-4.071 1.411-7.926 4-11.006A13.894 13.894 0 0014 0c-3.06 0-5.968.975-8.373 2.777a17.014 17.014 0 014.185 11.224c0 4.167-1.478 8.107-4.184 11.222A13.895 13.895 0 0014 28c3.179 0 6.196-1.053 8.654-2.993a17.012 17.012 0 01-4.006-11.012z" fill="#58ADE5"/><path class="p-66CC70" d="M18.648 13.995c0-4.071 1.411-7.926 4-11.006A13.893 13.893 0 0014 0v28c3.179 0 6.196-1.053 8.654-2.993a17.012 17.012 0 01-4.006-11.012z" fill="#4D98CB"/></svg>
